X: 17038
T: Hearty Boys Of Ballymote, The
R: jig
M: 6/8
K: Adorian
e2d|cAA eAc|BAB GBd|cAA eAc|BGB A2 B|
cAA EAc|BAB GBd|eag ege|dBG A2 B|
cAA eAc|BAB EGB|cAA eAc|BGB A2 B|
cAA EAc|BAB GBd|eag ege|dBG A3||
e/f/gg gfe|dBG Bcd|eaa aga|bag e2 d|
gag gfe|dBG Bcd|eag ege|dBG A2 B|
e/f/gg gfe|dBG Bcd|eaa aga|bag e2 d|
gfg bge|dBG Bcd|eag egf|gdB A2 B||

